report_00007_2020-12-11T15:55:29.892Z/render-blocking-resources/progression/stddev.svg

<svg width="640" height="500" xmlns="http://www.w3.org/2000/svg" xmlns:xlink="http://www.w3.org/1999/xlink"><path fill="#fff" d="M0 0h640v500H0z"/><defs><path id="g" stroke-width=".222" stroke="currentColor" d="M-1 0h2M0-1v2"/><path id="h" stroke-width=".222" stroke="currentColor" d="M-1-1l2 2m0-2l-2 2"/><path id="d" stroke-width=".222" stroke="currentColor" d="M-1-1h2v2h-2z"/><path id="b" stroke-width=".222" stroke="currentColor" d="M0-1.33l-1.33 2h2.66z"/><path id="f" stroke-width=".222" stroke="currentColor" d="M0 1.33L1.265.411.782-1.067l-1.564-.009-.483 1.487z"/><use xlink:href="#b" id="c" stroke="currentColor" transform="rotate(180)"/><use xlink:href="#d" id="e" stroke="currentColor" transform="rotate(45)"/><circle id="a" stroke-width=".222" stroke="currentColor" cx="0" cy="0" r="1"/></defs><g fill="none" color="#000" stroke="currentColor"><path stroke="#000" d="M53.9 437.8h9m552.1 0h-9"/><text transform="translate(45.6 441.7)" stroke="none" fill="#000" font-family="Arial" font-size="12" text-anchor="end"><tspan>0</tspan></text></g><g fill="none" color="#000" stroke="currentColor"><path stroke="#000" d="M53.9 385.1h9m552.1 0h-9"/><text transform="translate(45.6 389)" stroke="none" fill="#000" font-family="Arial" font-size="12" text-anchor="end"><tspan>20</tspan></text></g><g fill="none" color="#000" stroke="currentColor"><path stroke="#000" d="M53.9 332.4h9m552.1 0h-9"/><text transform="translate(45.6 336.3)" stroke="none" fill="#000" font-family="Arial" font-size="12" text-anchor="end"><tspan>40</tspan></text></g><g fill="none" color="#000" stroke="currentColor"><path stroke="#000" d="M53.9 279.7h9m552.1 0h-9"/><text transform="translate(45.6 283.6)" stroke="none" fill="#000" font-family="Arial" font-size="12" text-anchor="end"><tspan>60</tspan></text></g><g fill="none" color="#000" stroke="currentColor"><path stroke="#000" d="M53.9 227h9m552.1 0h-9"/><text transform="translate(45.6 230.9)" stroke="none" fill="#000" font-family="Arial" font-size="12" text-anchor="end"><tspan>80</tspan></text></g><g fill="none" color="#000" stroke="currentColor"><path stroke="#000" d="M53.9 174.3h9m552.1 0h-9"/><text transform="translate(45.6 178.2)" stroke="none" fill="#000" font-family="Arial" font-size="12" text-anchor="end"><tspan>100</tspan></text></g><g fill="none" color="#000" stroke="currentColor"><path stroke="#000" d="M53.9 121.6h9m552.1 0h-9"/><text transform="translate(45.6 125.5)" stroke="none" fill="#000" font-family="Arial" font-size="12" text-anchor="end"><tspan>120</tspan></text></g><g fill="none" color="#000" stroke="currentColor"><path stroke="#000" d="M53.9 68.9h9m552.1 0h-9"/><text transform="translate(45.6 72.8)" stroke="none" fill="#000" font-family="Arial" font-size="12" text-anchor="end"><tspan>140</tspan></text></g><g fill="none" color="#000" stroke="currentColor"><path stroke="#000" d="M53.9 446v-9m0-418.9v9"/><text transform="translate(53.9 467.9)" stroke="none" fill="#000" font-family="Arial" font-size="12" text-anchor="middle"><tspan>0</tspan></text></g><g fill="none" color="#000" stroke="currentColor"><path stroke="#000" d="M140.2 446v-9m0-418.9v9"/><text transform="translate(140.2 467.9)" stroke="none" fill="#000" font-family="Arial" font-size="12" text-anchor="middle"><tspan>2</tspan></text></g><g fill="none" color="#000" stroke="currentColor"><path stroke="#000" d="M226.5 446v-9m0-418.9v9"/><text transform="translate(226.5 467.9)" stroke="none" fill="#000" font-family="Arial" font-size="12" text-anchor="middle"><tspan>4</tspan></text></g><g fill="none" color="#000" stroke="currentColor"><path stroke="#000" d="M312.9 446v-9m0-418.9v9"/><text transform="translate(312.9 467.9)" stroke="none" fill="#000" font-family="Arial" font-size="12" text-anchor="middle"><tspan>6</tspan></text></g><g fill="none" color="#000" stroke="currentColor"><path stroke="#000" d="M399.2 446v-9m0-418.9v9"/><text transform="translate(399.2 467.9)" stroke="none" fill="#000" font-family="Arial" font-size="12" text-anchor="middle"><tspan>8</tspan></text></g><g fill="none" color="#000" stroke="currentColor"><path stroke="#000" d="M485.5 446v-9m0-418.9v9"/><text transform="translate(485.5 467.9)" stroke="none" fill="#000" font-family="Arial" font-size="12" text-anchor="middle"><tspan>10</tspan></text></g><g fill="none" color="#000" stroke="currentColor"><path stroke="#000" d="M571.8 446v-9m0-418.9v9"/><text transform="translate(571.8 467.9)" stroke="none" fill="#000" font-family="Arial" font-size="12" text-anchor="middle"><tspan>12</tspan></text></g><path stroke="#000" d="M53.9 18.1V446H615V18.1H53.9z" fill="none" color="#000"/><text transform="translate(275.6 485.9)" stroke="none" fill="#000" font-family="Arial" font-size="12" text-anchor="end" color="#000"><tspan>p90stdev</tspan></text><g fill="none" color="#000" stroke="currentColor"><path stroke="#9400D3" d="M283.9 482h42.2M53.9 437.8l43.2-50.3 43.1-3.7 43.2.5 43.1-332.9 43.2-12.2 43.2-12.9L356 433.9l43.2-362.5 43.2 366.4 43.1-3.3 43.2-287.3 43.1 290.6H615"/><use xlink:href="#g" transform="matrix(4.5 0 0 4.5 53.9 437.8)" color="#9400D3"/><use xlink:href="#g" transform="matrix(4.5 0 0 4.5 97.1 387.5)" color="#9400D3"/><use xlink:href="#g" transform="matrix(4.5 0 0 4.5 140.2 383.8)" color="#9400D3"/><use xlink:href="#g" transform="matrix(4.5 0 0 4.5 183.4 384.3)" color="#9400D3"/><use xlink:href="#g" transform="matrix(4.5 0 0 4.5 226.5 51.4)" color="#9400D3"/><use xlink:href="#g" transform="matrix(4.5 0 0 4.5 269.7 39.2)" color="#9400D3"/><use xlink:href="#g" transform="matrix(4.5 0 0 4.5 312.9 26.3)" color="#9400D3"/><use xlink:href="#g" transform="matrix(4.5 0 0 4.5 356 433.9)" color="#9400D3"/><use xlink:href="#g" transform="matrix(4.5 0 0 4.5 399.2 71.4)" color="#9400D3"/><use xlink:href="#g" transform="matrix(4.5 0 0 4.5 442.4 437.8)" color="#9400D3"/><use xlink:href="#g" transform="matrix(4.5 0 0 4.5 485.5 434.5)" color="#9400D3"/><use xlink:href="#g" transform="matrix(4.5 0 0 4.5 528.7 147.2)" color="#9400D3"/><use xlink:href="#g" transform="matrix(4.5 0 0 4.5 571.8 437.8)" color="#9400D3"/><use xlink:href="#g" transform="matrix(4.5 0 0 4.5 615 437.8)" color="#9400D3"/><use xlink:href="#g" transform="matrix(4.5 0 0 4.5 305 482)" color="#9400D3"/></g><text transform="translate(475.5 485.9)" stroke="none" fill="#000" font-family="Arial" font-size="12" text-anchor="end" color="#000"><tspan>p90outlandishness</tspan></text><g fill="none" color="#000" stroke="currentColor"><path stroke="#009E73" d="M483.8 482H526M97.1 435.1l43.1.1 43.2-.1 43.1.3h43.2l43.2-3 43.1 2.1 43.2.9 86.3-.1 43.2-8.3"/><use xlink:href="#h" transform="matrix(4.5 0 0 4.5 97.1 435.1)" color="#009E73"/><use xlink:href="#h" transform="matrix(4.5 0 0 4.5 140.2 435.2)" color="#009E73"/><use xlink:href="#h" transform="matrix(4.5 0 0 4.5 183.4 435.1)" color="#009E73"/><use xlink:href="#h" transform="matrix(4.5 0 0 4.5 226.5 435.4)" color="#009E73"/><use xlink:href="#h" transform="matrix(4.5 0 0 4.5 269.7 435.4)" color="#009E73"/><use xlink:href="#h" transform="matrix(4.5 0 0 4.5 312.9 432.4)" color="#009E73"/><use xlink:href="#h" transform="matrix(4.5 0 0 4.5 356 434.5)" color="#009E73"/><use xlink:href="#h" transform="matrix(4.5 0 0 4.5 399.2 435.4)" color="#009E73"/><use xlink:href="#h" transform="matrix(4.5 0 0 4.5 485.5 435.3)" color="#009E73"/><use xlink:href="#h" transform="matrix(4.5 0 0 4.5 528.7 427)" color="#009E73"/><use xlink:href="#h" transform="matrix(4.5 0 0 4.5 504.9 482)" color="#009E73"/></g><g fill="none" color="#000" stroke="currentColor"><path stroke="#000" d="M53.9 18.1V446H615V18.1H53.9z"/></g></svg>

<?xml version="1.0" encoding="utf-8"  standalone="no"?>
<svg 
 width="640" height="500"
 viewBox="0 0 640 500"
 xmlns="http://www.w3.org/2000/svg"
 xmlns:xlink="http://www.w3.org/1999/xlink"
>

<title>Gnuplot</title>
<desc>Produced by GNUPLOT 5.4 patchlevel 0 </desc>

<g id="gnuplot_canvas">

<rect x="0" y="0" width="640" height="500" fill="#ffffff"/>
<defs>

	<circle id='gpDot' r='0.5' stroke-width='0.5' stroke='currentColor'/>
	<path id='gpPt0' stroke-width='0.222' stroke='currentColor' d='M-1,0 h2 M0,-1 v2'/>
	<path id='gpPt1' stroke-width='0.222' stroke='currentColor' d='M-1,-1 L1,1 M1,-1 L-1,1'/>
	<path id='gpPt2' stroke-width='0.222' stroke='currentColor' d='M-1,0 L1,0 M0,-1 L0,1 M-1,-1 L1,1 M-1,1 L1,-1'/>
	<rect id='gpPt3' stroke-width='0.222' stroke='currentColor' x='-1' y='-1' width='2' height='2'/>
	<rect id='gpPt4' stroke-width='0.222' stroke='currentColor' fill='currentColor' x='-1' y='-1' width='2' height='2'/>
	<circle id='gpPt5' stroke-width='0.222' stroke='currentColor' cx='0' cy='0' r='1'/>
	<use xlink:href='#gpPt5' id='gpPt6' fill='currentColor' stroke='none'/>
	<path id='gpPt7' stroke-width='0.222' stroke='currentColor' d='M0,-1.33 L-1.33,0.67 L1.33,0.67 z'/>
	<use xlink:href='#gpPt7' id='gpPt8' fill='currentColor' stroke='none'/>
	<use xlink:href='#gpPt7' id='gpPt9' stroke='currentColor' transform='rotate(180)'/>
	<use xlink:href='#gpPt9' id='gpPt10' fill='currentColor' stroke='none'/>
	<use xlink:href='#gpPt3' id='gpPt11' stroke='currentColor' transform='rotate(45)'/>
	<use xlink:href='#gpPt11' id='gpPt12' fill='currentColor' stroke='none'/>
	<path id='gpPt13' stroke-width='0.222' stroke='currentColor' d='M0,1.330 L1.265,0.411 L0.782,-1.067 L-0.782,-1.076 L-1.265,0.411 z'/>
	<use xlink:href='#gpPt13' id='gpPt14' fill='currentColor' stroke='none'/>
	<filter id='textbox' filterUnits='objectBoundingBox' x='0' y='0' height='1' width='1'>
	  <feFlood flood-color='#FFFFFF' flood-opacity='1' result='bgnd'/>
	  <feComposite in='SourceGraphic' in2='bgnd' operator='atop'/>
	</filter>
	<filter id='greybox' filterUnits='objectBoundingBox' x='0' y='0' height='1' width='1'>
	  <feFlood flood-color='lightgrey' flood-opacity='1' result='grey'/>
	  <feComposite in='SourceGraphic' in2='grey' operator='atop'/>
	</filter>
</defs>
<g fill="none" color="#FFFFFF" stroke="black" stroke-width="1.00" stroke-linecap="butt" stroke-linejoin="miter">
</g>
<g fill="none" color="black" stroke="currentColor" stroke-width="1.00" stroke-linecap="butt" stroke-linejoin="miter">
	<path stroke='black'  d='M53.9,437.8 L62.9,437.8 M615.0,437.8 L606.0,437.8  '/>	<g transform="translate(45.6,441.7)" stroke="none" fill="black" font-family="Arial" font-size="12.00"  text-anchor="end">
		<text><tspan font-family="Arial" > 0</tspan></text>
	</g>
</g>
<g fill="none" color="black" stroke="currentColor" stroke-width="1.00" stroke-linecap="butt" stroke-linejoin="miter">
	<path stroke='black'  d='M53.9,385.1 L62.9,385.1 M615.0,385.1 L606.0,385.1  '/>	<g transform="translate(45.6,389.0)" stroke="none" fill="black" font-family="Arial" font-size="12.00"  text-anchor="end">
		<text><tspan font-family="Arial" > 20</tspan></text>
	</g>
</g>
<g fill="none" color="black" stroke="currentColor" stroke-width="1.00" stroke-linecap="butt" stroke-linejoin="miter">
	<path stroke='black'  d='M53.9,332.4 L62.9,332.4 M615.0,332.4 L606.0,332.4  '/>	<g transform="translate(45.6,336.3)" stroke="none" fill="black" font-family="Arial" font-size="12.00"  text-anchor="end">
		<text><tspan font-family="Arial" > 40</tspan></text>
	</g>
</g>
<g fill="none" color="black" stroke="currentColor" stroke-width="1.00" stroke-linecap="butt" stroke-linejoin="miter">
	<path stroke='black'  d='M53.9,279.7 L62.9,279.7 M615.0,279.7 L606.0,279.7  '/>	<g transform="translate(45.6,283.6)" stroke="none" fill="black" font-family="Arial" font-size="12.00"  text-anchor="end">
		<text><tspan font-family="Arial" > 60</tspan></text>
	</g>
</g>
<g fill="none" color="black" stroke="currentColor" stroke-width="1.00" stroke-linecap="butt" stroke-linejoin="miter">
	<path stroke='black'  d='M53.9,227.0 L62.9,227.0 M615.0,227.0 L606.0,227.0  '/>	<g transform="translate(45.6,230.9)" stroke="none" fill="black" font-family="Arial" font-size="12.00"  text-anchor="end">
		<text><tspan font-family="Arial" > 80</tspan></text>
	</g>
</g>
<g fill="none" color="black" stroke="currentColor" stroke-width="1.00" stroke-linecap="butt" stroke-linejoin="miter">
	<path stroke='black'  d='M53.9,174.3 L62.9,174.3 M615.0,174.3 L606.0,174.3  '/>	<g transform="translate(45.6,178.2)" stroke="none" fill="black" font-family="Arial" font-size="12.00"  text-anchor="end">
		<text><tspan font-family="Arial" > 100</tspan></text>
	</g>
</g>
<g fill="none" color="black" stroke="currentColor" stroke-width="1.00" stroke-linecap="butt" stroke-linejoin="miter">
	<path stroke='black'  d='M53.9,121.6 L62.9,121.6 M615.0,121.6 L606.0,121.6  '/>	<g transform="translate(45.6,125.5)" stroke="none" fill="black" font-family="Arial" font-size="12.00"  text-anchor="end">
		<text><tspan font-family="Arial" > 120</tspan></text>
	</g>
</g>
<g fill="none" color="black" stroke="currentColor" stroke-width="1.00" stroke-linecap="butt" stroke-linejoin="miter">
	<path stroke='black'  d='M53.9,68.9 L62.9,68.9 M615.0,68.9 L606.0,68.9  '/>	<g transform="translate(45.6,72.8)" stroke="none" fill="black" font-family="Arial" font-size="12.00"  text-anchor="end">
		<text><tspan font-family="Arial" > 140</tspan></text>
	</g>
</g>
<g fill="none" color="black" stroke="currentColor" stroke-width="1.00" stroke-linecap="butt" stroke-linejoin="miter">
	<path stroke='black'  d='M53.9,446.0 L53.9,437.0 M53.9,18.1 L53.9,27.1  '/>	<g transform="translate(53.9,467.9)" stroke="none" fill="black" font-family="Arial" font-size="12.00"  text-anchor="middle">
		<text><tspan font-family="Arial" > 0</tspan></text>
	</g>
</g>
<g fill="none" color="black" stroke="currentColor" stroke-width="1.00" stroke-linecap="butt" stroke-linejoin="miter">
	<path stroke='black'  d='M140.2,446.0 L140.2,437.0 M140.2,18.1 L140.2,27.1  '/>	<g transform="translate(140.2,467.9)" stroke="none" fill="black" font-family="Arial" font-size="12.00"  text-anchor="middle">
		<text><tspan font-family="Arial" > 2</tspan></text>
	</g>
</g>
<g fill="none" color="black" stroke="currentColor" stroke-width="1.00" stroke-linecap="butt" stroke-linejoin="miter">
	<path stroke='black'  d='M226.5,446.0 L226.5,437.0 M226.5,18.1 L226.5,27.1  '/>	<g transform="translate(226.5,467.9)" stroke="none" fill="black" font-family="Arial" font-size="12.00"  text-anchor="middle">
		<text><tspan font-family="Arial" > 4</tspan></text>
	</g>
</g>
<g fill="none" color="black" stroke="currentColor" stroke-width="1.00" stroke-linecap="butt" stroke-linejoin="miter">
	<path stroke='black'  d='M312.9,446.0 L312.9,437.0 M312.9,18.1 L312.9,27.1  '/>	<g transform="translate(312.9,467.9)" stroke="none" fill="black" font-family="Arial" font-size="12.00"  text-anchor="middle">
		<text><tspan font-family="Arial" > 6</tspan></text>
	</g>
</g>
<g fill="none" color="black" stroke="currentColor" stroke-width="1.00" stroke-linecap="butt" stroke-linejoin="miter">
	<path stroke='black'  d='M399.2,446.0 L399.2,437.0 M399.2,18.1 L399.2,27.1  '/>	<g transform="translate(399.2,467.9)" stroke="none" fill="black" font-family="Arial" font-size="12.00"  text-anchor="middle">
		<text><tspan font-family="Arial" > 8</tspan></text>
	</g>
</g>
<g fill="none" color="black" stroke="currentColor" stroke-width="1.00" stroke-linecap="butt" stroke-linejoin="miter">
	<path stroke='black'  d='M485.5,446.0 L485.5,437.0 M485.5,18.1 L485.5,27.1  '/>	<g transform="translate(485.5,467.9)" stroke="none" fill="black" font-family="Arial" font-size="12.00"  text-anchor="middle">
		<text><tspan font-family="Arial" > 10</tspan></text>
	</g>
</g>
<g fill="none" color="black" stroke="currentColor" stroke-width="1.00" stroke-linecap="butt" stroke-linejoin="miter">
	<path stroke='black'  d='M571.8,446.0 L571.8,437.0 M571.8,18.1 L571.8,27.1  '/>	<g transform="translate(571.8,467.9)" stroke="none" fill="black" font-family="Arial" font-size="12.00"  text-anchor="middle">
		<text><tspan font-family="Arial" > 12</tspan></text>
	</g>
</g>
<g fill="none" color="black" stroke="currentColor" stroke-width="1.00" stroke-linecap="butt" stroke-linejoin="miter">
</g>
<g fill="none" color="black" stroke="currentColor" stroke-width="1.00" stroke-linecap="butt" stroke-linejoin="miter">
	<path stroke='black'  d='M53.9,18.1 L53.9,446.0 L615.0,446.0 L615.0,18.1 L53.9,18.1 Z  '/></g>
<g fill="none" color="black" stroke="currentColor" stroke-width="1.00" stroke-linecap="butt" stroke-linejoin="miter">
</g>
	<g id="gnuplot_plot_1" ><title>p90stdev</title>
<g fill="none" color="black" stroke="currentColor" stroke-width="1.00" stroke-linecap="butt" stroke-linejoin="miter">
	<g transform="translate(275.6,485.9)" stroke="none" fill="black" font-family="Arial" font-size="12.00"  text-anchor="end">
		<text><tspan font-family="Arial" >p90stdev</tspan></text>
	</g>
</g>
<g fill="none" color="black" stroke="currentColor" stroke-width="1.00" stroke-linecap="butt" stroke-linejoin="miter">
	<path stroke='rgb(148,   0, 211)'  d='M283.9,482.0 L326.1,482.0 M53.9,437.8 L97.1,387.5 L140.2,383.8 L183.4,384.3 L226.5,51.4 L269.7,39.2
		L312.9,26.3 L356.0,433.9 L399.2,71.4 L442.4,437.8 L485.5,434.5 L528.7,147.2 L571.8,437.8 L615.0,437.8
		 '/>	<use xlink:href='#gpPt0' transform='translate(53.9,437.8) scale(4.50)' color='rgb(148,   0, 211)'/>
	<use xlink:href='#gpPt0' transform='translate(97.1,387.5) scale(4.50)' color='rgb(148,   0, 211)'/>
	<use xlink:href='#gpPt0' transform='translate(140.2,383.8) scale(4.50)' color='rgb(148,   0, 211)'/>
	<use xlink:href='#gpPt0' transform='translate(183.4,384.3) scale(4.50)' color='rgb(148,   0, 211)'/>
	<use xlink:href='#gpPt0' transform='translate(226.5,51.4) scale(4.50)' color='rgb(148,   0, 211)'/>
	<use xlink:href='#gpPt0' transform='translate(269.7,39.2) scale(4.50)' color='rgb(148,   0, 211)'/>
	<use xlink:href='#gpPt0' transform='translate(312.9,26.3) scale(4.50)' color='rgb(148,   0, 211)'/>
	<use xlink:href='#gpPt0' transform='translate(356.0,433.9) scale(4.50)' color='rgb(148,   0, 211)'/>
	<use xlink:href='#gpPt0' transform='translate(399.2,71.4) scale(4.50)' color='rgb(148,   0, 211)'/>
	<use xlink:href='#gpPt0' transform='translate(442.4,437.8) scale(4.50)' color='rgb(148,   0, 211)'/>
	<use xlink:href='#gpPt0' transform='translate(485.5,434.5) scale(4.50)' color='rgb(148,   0, 211)'/>
	<use xlink:href='#gpPt0' transform='translate(528.7,147.2) scale(4.50)' color='rgb(148,   0, 211)'/>
	<use xlink:href='#gpPt0' transform='translate(571.8,437.8) scale(4.50)' color='rgb(148,   0, 211)'/>
	<use xlink:href='#gpPt0' transform='translate(615.0,437.8) scale(4.50)' color='rgb(148,   0, 211)'/>
	<use xlink:href='#gpPt0' transform='translate(305.0,482.0) scale(4.50)' color='rgb(148,   0, 211)'/>
</g>
	</g>
	<g id="gnuplot_plot_2" ><title>p90outlandishness</title>
<g fill="none" color="black" stroke="currentColor" stroke-width="1.00" stroke-linecap="butt" stroke-linejoin="miter">
	<g transform="translate(475.5,485.9)" stroke="none" fill="black" font-family="Arial" font-size="12.00"  text-anchor="end">
		<text><tspan font-family="Arial" >p90outlandishness</tspan></text>
	</g>
</g>
<g fill="none" color="black" stroke="currentColor" stroke-width="1.00" stroke-linecap="butt" stroke-linejoin="miter">
	<path stroke='rgb(  0, 158, 115)'  d='M483.8,482.0 L526.0,482.0 M97.1,435.1 L140.2,435.2 L183.4,435.1 L226.5,435.4 L269.7,435.4 L312.9,432.4
		L356.0,434.5 L399.2,435.4 L485.5,435.3 L528.7,427.0  '/>	<use xlink:href='#gpPt1' transform='translate(97.1,435.1) scale(4.50)' color='rgb(  0, 158, 115)'/>
	<use xlink:href='#gpPt1' transform='translate(140.2,435.2) scale(4.50)' color='rgb(  0, 158, 115)'/>
	<use xlink:href='#gpPt1' transform='translate(183.4,435.1) scale(4.50)' color='rgb(  0, 158, 115)'/>
	<use xlink:href='#gpPt1' transform='translate(226.5,435.4) scale(4.50)' color='rgb(  0, 158, 115)'/>
	<use xlink:href='#gpPt1' transform='translate(269.7,435.4) scale(4.50)' color='rgb(  0, 158, 115)'/>
	<use xlink:href='#gpPt1' transform='translate(312.9,432.4) scale(4.50)' color='rgb(  0, 158, 115)'/>
	<use xlink:href='#gpPt1' transform='translate(356.0,434.5) scale(4.50)' color='rgb(  0, 158, 115)'/>
	<use xlink:href='#gpPt1' transform='translate(399.2,435.4) scale(4.50)' color='rgb(  0, 158, 115)'/>
	<use xlink:href='#gpPt1' transform='translate(485.5,435.3) scale(4.50)' color='rgb(  0, 158, 115)'/>
	<use xlink:href='#gpPt1' transform='translate(528.7,427.0) scale(4.50)' color='rgb(  0, 158, 115)'/>
	<use xlink:href='#gpPt1' transform='translate(504.9,482.0) scale(4.50)' color='rgb(  0, 158, 115)'/>
</g>
	</g>
<g fill="none" color="#FFFFFF" stroke="rgb(  0, 158, 115)" stroke-width="2.00" stroke-linecap="butt" stroke-linejoin="miter">
</g>
<g fill="none" color="black" stroke="currentColor" stroke-width="2.00" stroke-linecap="butt" stroke-linejoin="miter">
</g>
<g fill="none" color="black" stroke="black" stroke-width="1.00" stroke-linecap="butt" stroke-linejoin="miter">
</g>
<g fill="none" color="black" stroke="currentColor" stroke-width="1.00" stroke-linecap="butt" stroke-linejoin="miter">
	<path stroke='black'  d='M53.9,18.1 L53.9,446.0 L615.0,446.0 L615.0,18.1 L53.9,18.1 Z  '/></g>
<g fill="none" color="black" stroke="currentColor" stroke-width="1.00" stroke-linecap="butt" stroke-linejoin="miter">
</g>
</g>
</svg>
